X:1
T:compo violon
M:6/8
L:1/8
Q:1/4=190
K:F
GAB ABc | dBd BcA | BG A2 A2 | GA BA Bc | dB dB cA | BG G2 G2 :|
B2 BA Bd | c2 c2 B2 | B2 A2 A2
